svgs/brands/algolia.svg

<svg xmlns="http://www.w3.org/2000/svg" viewBox="0 0 512 512"><!--! Font Awesome Free 7.2.0 by @fontawesome - https://fontawesome.com License - https://fontawesome.com/license/free (Icons: CC BY 4.0, Fonts: SIL OFL 1.1, Code: MIT License) Copyright 2026 Fonticons, Inc. --><path fill="currentColor" d="M256 0c-139.9 0-254 112.7-256 252.1-2 141.5 112.9 258.7 254.5 259.5 43.7 .3 85.9-10.4 123.3-30.7 3.6-2 4.2-7 1.1-9.7l-24-21.2c-4.9-4.3-11.8-5.5-17.8-3-26.1 11.1-54.5 16.8-83.7 16.4-114.4-1.5-206.9-96.6-205.1-211 1.8-112.9 94.3-204.2 207.7-204.2l207.7 0 0 369-117.8-104.7c-3.8-3.4-9.7-2.7-12.7 1.3-18.9 25-49.7 40.6-83.9 38.2-47.5-3.3-85.9-41.5-89.5-88.9-4.2-56.6 40.6-103.9 96.3-103.9 50.4 0 91.9 38.8 96.2 88 .4 4.4 2.4 8.5 5.7 11.4l30.7 27.2c3.5 3.1 9 1.2 9.9-3.4 2.2-11.8 3-24.2 2.1-36.8-4.9-72-63.3-130-135.4-134.4-82.7-5.1-151.8 59.5-154 140.6-2.1 78.9 62.6 147 141.6 148.7 33 .7 63.6-9.6 88.3-27.6L495 509.4c6.6 5.8 17 1.2 17-7.7l0-492c0-5.4-4.4-9.7-9.7-9.7L256 0z"/></svg>

<svg xmlns="http://www.w3.org/2000/svg" viewBox="0 0 512 512"><!--! Font Awesome Free 6.5.2 by @fontawesome - https://fontawesome.com License - https://fontawesome.com/license/free (Icons: CC BY 4.0, Fonts: SIL OFL 1.1, Code: MIT License) Copyright 2024 Fonticons, Inc. --><path d="M256 0C116.1 0 2 112.7 0 252.1C-2 393.6 112.9 510.8 254.5 511.6c43.7 .3 85.9-10.4 123.3-30.7c3.6-2 4.2-7 1.1-9.7l-24-21.2c-4.9-4.3-11.8-5.5-17.8-3c-26.1 11.1-54.5 16.8-83.7 16.4C139 461.9 46.5 366.8 48.3 252.4C50.1 139.5 142.6 48.2 256 48.2H463.7V417.2L345.9 312.5c-3.8-3.4-9.7-2.7-12.7 1.3c-18.9 25-49.7 40.6-83.9 38.2c-47.5-3.3-85.9-41.5-89.5-88.9c-4.2-56.6 40.6-103.9 96.3-103.9c50.4 0 91.9 38.8 96.2 88c.4 4.4 2.4 8.5 5.7 11.4l30.7 27.2c3.5 3.1 9 1.2 9.9-3.4c2.2-11.8 3-24.2 2.1-36.8c-4.9-72-63.3-130-135.4-134.4c-82.7-5.1-151.8 59.5-154 140.6c-2.1 78.9 62.6 147 141.6 148.7c33 .7 63.6-9.6 88.3-27.6L495 509.4c6.6 5.8 17 1.2 17-7.7V9.7c0-5.4-4.4-9.7-9.7-9.7H256z"/></svg>
